svg/600/sharp/campaign.svg

<svg xmlns="http://www.w3.org/2000/svg" width="48" height="48" viewBox="0 -960 960 960"><path d="M736.218-443.782v-72.436h169.783v72.436H736.218Zm63.566 296.783L662.957-248.87l43.913-58.174 136.262 101.305-43.348 58.74ZM709.87-653.956l-43.913-58.174 133.827-100.871 43.348 58.175-133.262 100.87ZM183.999-185.869v-160h-130v-268.827h250.174l218.653-130.74v530.872L304.173-345.869h-38.13v160h-82.044Zm259.044-168.61v-251.042L324.13-534.913H133.782v109.826H324.13l118.913 70.608Zm119.783 22.61v-296.827q33.218 25.695 53.109 64.435 19.892 38.739 19.892 84.261t-19.892 84.261q-19.891 38.74-53.109 63.87ZM288.695-480Z"/></svg>

<svg xmlns="http://www.w3.org/2000/svg" width="48" height="48" viewBox="0 -960 960 960"><path d="M736.22-443.78v-72.44H906v72.44H736.22ZM799.78-147 662.96-248.87l43.91-58.17 136.26 101.3L799.78-147Zm-89.91-506.96-43.91-58.17L799.78-813l43.35 58.17-133.26 100.87ZM184-185.87v-160H54V-614.7h250.17l218.66-130.74v530.88L304.17-345.87h-38.13v160H184Zm259.04-168.61v-251.04l-118.91 70.61H133.78v109.82h190.35l118.91 70.61Zm119.79 22.61V-628.7q33.21 25.7 53.11 64.44 19.89 38.74 19.89 84.26t-19.89 84.26q-19.9 38.74-53.11 63.87ZM288.7-480Z"/></svg>
